assets/toilet.svg

<svg xmlns="http://www.w3.org/2000/svg" height="512pt" version="1.1" viewBox="-106 0 512 512.00001" width="512pt">
<g id="surface1">
<path d="M 300.136719 17.65625 C 300.136719 7.902344 292.234375 0 282.480469 0 L 17.65625 0 C 7.902344 0 0 7.902344 0 17.65625 C 0 27.40625 7.902344 35.308594 17.65625 35.308594 L 282.480469 35.308594 C 292.234375 35.3125 300.136719 27.40625 300.136719 17.65625 Z M 300.136719 17.65625 " style=" stroke:none;fill-rule:nonzero;fill:rgb(25.490196%,46.27451%,61.960784%);fill-opacity:1;" />
<path d="M 52.964844 211.863281 L 247.171875 211.863281 L 247.171875 247.171875 L 52.964844 247.171875 Z M 52.964844 211.863281 " style=" stroke:none;fill-rule:nonzero;fill:rgb(70.196078%,59.215686%,49.803922%);fill-opacity:1;" />
<path d="M 8.828125 282.480469 L 300.136719 282.480469 C 300.136719 262.980469 284.328125 247.171875 264.828125 247.171875 L 35.3125 247.171875 C 15.808594 247.171875 0 262.980469 0 282.480469 Z M 8.828125 282.480469 " style=" stroke:none;fill-rule:nonzero;fill:rgb(25.490196%,46.27451%,61.960784%);fill-opacity:1;" />
<path d="M 97.101562 422.222656 L 97.101562 512 L 203.035156 512 L 203.035156 422.222656 C 169.066406 435.992188 131.070312 435.992188 97.101562 422.222656 Z M 97.101562 422.222656 " style=" stroke:none;fill-rule:nonzero;fill:rgb(70.196078%,59.215686%,49.803922%);fill-opacity:1;" />
<path d="M 79.449219 79.449219 C 79.449219 89.199219 71.542969 97.101562 61.792969 97.101562 C 52.042969 97.101562 44.136719 89.199219 44.136719 79.449219 C 44.136719 69.699219 52.042969 61.792969 61.792969 61.792969 C 71.542969 61.792969 79.449219 69.699219 79.449219 79.449219 Z M 79.449219 79.449219 " style=" stroke:none;fill-rule:nonzero;fill:rgb(93.333333%,78.823529%,66.27451%);fill-opacity:1;" />
<path d="M 35.3125 211.863281 L 150.070312 211.863281 L 150.070312 35.3125 L 17.65625 35.3125 L 17.65625 194.207031 C 17.65625 203.957031 25.558594 211.863281 35.3125 211.863281 Z M 61.792969 61.792969 C 71.542969 61.792969 79.449219 69.699219 79.449219 79.449219 C 79.449219 89.199219 71.542969 97.101562 61.792969 97.101562 C 52.042969 97.101562 44.136719 89.199219 44.136719 79.449219 C 44.136719 69.699219 52.042969 61.792969 61.792969 61.792969 Z M 61.792969 61.792969 " style=" stroke:none;fill-rule:nonzero;fill:rgb(93.333333%,78.823529%,66.27451%);fill-opacity:1;" />
<path d="M 264.828125 211.863281 C 274.578125 211.863281 282.480469 203.957031 282.480469 194.207031 L 282.480469 35.3125 L 150.070312 35.3125 L 150.070312 211.863281 Z M 264.828125 211.863281 " style=" stroke:none;fill-rule:nonzero;fill:rgb(94.509804%,83.137255%,72.941176%);fill-opacity:1;" />
<path d="M 150.070312 282.480469 L 150.070312 432.550781 C 168.226562 432.597656 186.222656 429.089844 203.035156 422.222656 C 256.417969 400.6875 291.355469 348.875 291.308594 291.308594 L 291.308594 282.480469 Z M 150.070312 282.480469 " style=" stroke:none;fill-rule:nonzero;fill:rgb(94.509804%,83.137255%,72.941176%);fill-opacity:1;" />
<path d="M 8.828125 282.480469 L 8.828125 291.308594 C 8.78125 348.875 43.71875 400.6875 97.105469 422.222656 C 113.914062 429.089844 131.910156 432.597656 150.070312 432.550781 L 150.070312 282.480469 Z M 8.828125 282.480469 " style=" stroke:none;fill-rule:nonzero;fill:rgb(93.333333%,78.823529%,66.27451%);fill-opacity:1;" />
<path d="M 61.792969 105.929688 C 47.167969 105.929688 35.3125 94.074219 35.3125 79.449219 C 35.3125 64.820312 47.167969 52.964844 61.792969 52.964844 C 76.417969 52.964844 88.277344 64.820312 88.277344 79.449219 C 88.277344 94.074219 76.417969 105.929688 61.792969 105.929688 Z M 61.792969 70.621094 C 56.917969 70.621094 52.964844 74.574219 52.964844 79.449219 C 52.964844 84.324219 56.917969 88.277344 61.792969 88.277344 C 66.667969 88.277344 70.621094 84.324219 70.621094 79.449219 C 70.621094 74.574219 66.667969 70.621094 61.792969 70.621094 Z M 61.792969 70.621094 " style=" stroke:none;fill-rule:nonzero;fill:rgb(10.196078%,43.529412%,69.019608%);fill-opacity:1;" />
<path d="M 114.757812 88.277344 L 79.449219 88.277344 C 74.574219 88.277344 70.621094 84.324219 70.621094 79.449219 C 70.621094 74.574219 74.574219 70.621094 79.449219 70.621094 L 114.757812 70.621094 C 119.632812 70.621094 123.585938 74.574219 123.585938 79.449219 C 123.585938 84.324219 119.632812 88.277344 114.757812 88.277344 Z M 114.757812 88.277344 " style=" stroke:none;fill-rule:nonzero;fill:rgb(10.196078%,43.529412%,69.019608%);fill-opacity:1;" />
</g>
</svg>

<?xml version="1.0" encoding="utf-8"?>
<!-- Generator: Adobe Illustrator 16.0.4, SVG Export Plug-In . SVG Version: 6.00 Build 0)  -->
<!DOCTYPE svg PUBLIC "-//W3C//DTD SVG 1.1//EN" "http://www.w3.org/Graphics/SVG/1.1/DTD/svg11.dtd">
<svg version="1.1" id="Layer_1" xmlns="http://www.w3.org/2000/svg" xmlns:xlink="http://www.w3.org/1999/xlink" x="0px" y="0px"
	 width="300.137px" height="512px" viewBox="0 0 300.137 512" enable-background="new 0 0 300.137 512" xml:space="preserve">
<g id="surface1">
	<path fill="#41769E" d="M300.137,17.656C300.137,7.902,292.234,0,282.48,0H17.656C7.902,0,0,7.902,0,17.656
		c0,9.75,7.902,17.652,17.656,17.652H282.48C292.234,35.312,300.137,27.406,300.137,17.656z"/>
	<path fill="#B3977F" d="M52.965,211.863h194.207v35.309H52.965V211.863z"/>
	<path fill="#41769E" d="M8.828,282.48h291.309c0-19.5-15.809-35.309-35.309-35.309H35.312C15.809,247.172,0,262.98,0,282.48H8.828z
		"/>
	<path fill="#B3977F" d="M97.102,422.223V512h105.934v-89.777C169.066,435.992,131.07,435.992,97.102,422.223z"/>
	<path fill="#EEC9A9" d="M79.449,79.449c0,9.75-7.906,17.652-17.656,17.652s-17.656-7.902-17.656-17.652s7.906-17.656,17.656-17.656
		S79.449,69.699,79.449,79.449z"/>
	<path fill="#EEC9A9" d="M35.312,211.863H150.07V35.312H17.656v158.895C17.656,203.957,25.559,211.863,35.312,211.863z
		 M61.793,61.793c9.75,0,17.656,7.906,17.656,17.656s-7.906,17.652-17.656,17.652s-17.656-7.902-17.656-17.652
		S52.043,61.793,61.793,61.793z"/>
	<path fill="#F1D4BA" d="M264.828,211.863c9.75,0,17.652-7.906,17.652-17.656V35.312H150.07v176.551H264.828z"/>
	<path fill="#F1D4BA" d="M150.07,282.48v150.07c18.156,0.047,36.152-3.461,52.965-10.328c53.383-21.535,88.32-73.348,88.273-130.914
		v-8.828H150.07z"/>
	<path fill="#EEC9A9" d="M8.828,282.48v8.828c-0.047,57.566,34.891,109.379,88.277,130.914
		c16.809,6.867,34.805,10.375,52.965,10.328V282.48H8.828z"/>
	<path fill="#1A6FB0" d="M61.793,105.93c-14.625,0-26.48-11.855-26.48-26.48c0-14.629,11.855-26.484,26.48-26.484
		S88.277,64.82,88.277,79.449C88.277,94.074,76.418,105.93,61.793,105.93z M61.793,70.621c-4.875,0-8.828,3.953-8.828,8.828
		s3.953,8.828,8.828,8.828s8.828-3.953,8.828-8.828S66.668,70.621,61.793,70.621z"/>
	<path fill="#1A6FB0" d="M114.758,88.277H79.449c-4.875,0-8.828-3.953-8.828-8.828s3.953-8.828,8.828-8.828h35.309
		c4.875,0,8.828,3.953,8.828,8.828S119.633,88.277,114.758,88.277z"/>
</g>
</svg>
